X: 41757
T: Vandals Of Hammerwich, The
R: polka
M: 2/4
K: Gmajor
|:DG BG|DG Bc|d2 d>e|dc AF|
DG BG|DG Bd|dc AF|1 G2 G2:|2 G2 Bc||
|:d2 d>d|d3 d|eg fe|ed dd/e/|
dc cc/d/|cB BB/c/|dc AF|1 G2 Bc:|2 G2 G2||

